X:725
T:Golden Gardens, The
R:slip jig
C:Randal Bays
Z:Transcribed by Dave Marshall
M:9/8
K:Eminor
A|:B2E EFG FGA | E2c cBc d2c | B2E EFG AGF | GFE FED E3 :|
c3 cdc BGE | c3 cdc B3 | c3 cdc BGE | GFE FED E3 |
c3 cdc BGE | c3 cdc Bef | geg fdf ece | dcB ABG FGA
|:B3 BAB d2B | c3 cBc e2c | B3 BAB d2B | cAF DEF G3 :|
